**kern	**kern	**dynam
*part1	*part1	*part1
*staff2	*staff1	*
*I"Piano	*	*
*clefF4	*clefG2	*
*k[b-e-a-]	*k[b-e-a-]	*
=1	=1	=1
8EE- 8E-	8G 8e-	mp
8E-L	(8e-L 8g	mp
8E-	8e- 8g	p
8E-	8e- 8g	.
8E- 8F	8d 8a-	.
8E-J 8G-X	8cJ 8an	.
=	=	=
*^	*^	*
4rFyy	8DL 8F	4cc	8cL 8f	mp
.	8DJ 8F	.	8cJ 8f	mp
4.B-	8DL 8F	4.b-)	8fL	p
.	8D 8F	.	8f	.
.	8D 8F	.	8f	.
8B-	8DJ 8F	(8b-	8fJ	.
*v	*v	*	*	*
=	=	=	=
8CL 8A-	4.ee-	8e-L 8a-	mp
8C 8A-	.	8e- 8a-	mp
8C 8A-	.	8e- 8a-	p
8CJ 8A-	16ddLL	8e-J 8a-	.
.	16ccJJ	.	.
8DL 8B-	8b-L	8fL	.
8DJ 8B-	8a-J)	8fJ	.
=	=	=	=
4E- 4B-	4ryy	(8gL	mp
.	.	8ggJ	.
4F 4B-	20ddLL	4a- 4dd	<
.	20ee-	.	.
.	20dd	.	.
.	20cc#X	.	.
!	!LO:TX:a:i:t=ritardando	!	!
.	20ddJJ	.	.
4F#X 4B-	8ffL	4an	[ mf
.	8ee-J	.	.
=	=	=	=
4G 4B-	8b-L	4e-	mf
.	8bnJ	.	>
4AA- 4F	8ddnL	4e-	.
.	8ccJ	.	.
4BB- 4A-	(8gL	4d)	]
.	8fJ)	.	.
*	*v	*v	*
=	=	=
*^	*	*
(2.A-	[2.EE- [2.BB-	((2.d 2.f	.
=	=	=	=
2.G)	2.EE-] 2.BB-]	2.e-))	p
*v	*v	*	*
==	==	==
*-	*-	*-
!!!system-decoration: {(s1,s2)}
